src/assets/filled/Maker.svg

<?xml version="1.0" encoding="UTF-8"?>
<svg width="24" height="24" viewBox="0 0 24 24" xmlns="http://www.w3.org/2000/svg">
 <path d="m12 2c-5.52 0-10 4.48-10 10s4.48 10 10 10 10-4.48 10-10-4.48-10-10-10zm-0.5 12.5c0 0.41-0.34 0.75-0.75 0.75s-0.75-0.34-0.75-0.75v-2.08l-2.67-1.6v3.68c0 0.41-0.34 0.75-0.75 0.75s-0.75-0.34-0.75-0.75v-5c0-0.27 0.15-0.52 0.38-0.65s0.52-0.13 0.75 0.01l4.17 2.5c0.23 0.14 0.36 0.38 0.36 0.64v2.5h0.01zm6.67 0c0 0.41-0.34 0.75-0.75 0.75s-0.75-0.34-0.75-0.75v-3.68l-2.67 1.6v2.08c0 0.41-0.34 0.75-0.75 0.75s-0.75-0.34-0.75-0.75v-2.5c0-0.26 0.14-0.51 0.36-0.64l4.17-2.5c0.23-0.14 0.52-0.14 0.75-0.01 0.24 0.13 0.38 0.38 0.38 0.65v5h0.01z"/>
</svg>

<svg width="24" height="24" viewBox="0 0 24 24"  xmlns="http://www.w3.org/2000/svg">
<path d="M12 2C6.48 2 2 6.48 2 12C2 17.52 6.48 22 12 22C17.52 22 22 17.52 22 12C22 6.48 17.52 2 12 2ZM11.5 14.5C11.5 14.91 11.16 15.25 10.75 15.25C10.34 15.25 10 14.91 10 14.5V12.42L7.33002 10.82V14.5C7.33002 14.91 6.99002 15.25 6.58002 15.25C6.17002 15.25 5.83002 14.91 5.83002 14.5V9.5C5.83002 9.23 5.98002 8.98 6.21002 8.85C6.44002 8.72 6.73002 8.72 6.96002 8.86L11.13 11.36C11.36 11.5 11.49 11.74 11.49 12V14.5H11.5ZM18.17 14.5C18.17 14.91 17.83 15.25 17.42 15.25C17.01 15.25 16.67 14.91 16.67 14.5V10.82L14 12.42V14.5C14 14.91 13.66 15.25 13.25 15.25C12.84 15.25 12.5 14.91 12.5 14.5V12C12.5 11.74 12.64 11.49 12.86 11.36L17.03 8.86C17.26 8.72 17.55 8.72 17.78 8.85C18.02 8.98 18.16 9.23 18.16 9.5V14.5H18.17Z" />
</svg>
